CSETWebApi/CSETWeb_Api/CSETWeb_ApiCore/Diagram/src/main/webapp/img/lib/mscae/Tags.svg

<svg xmlns="http://www.w3.org/2000/svg" xmlns:xlink="http://www.w3.org/1999/xlink" height="50" width="42.2"><path d="M30.6 0l-9.9.4L0 21.1l14.7 14.7 20.7-20.7.8-9.5L30.6 0zm.8 7.7c-.8.8-2.1.8-2.9 0s-.8-2.1 0-2.9 2.1-.8 2.9 0 .8 2.1 0 2.9z" fill="#7fba00"/><path d="M18 3.1l-18 18 14.7 14.7 3.3-3.3z" opacity=".1" fill="#fff"/><path d="M32.6 3.6a3.68 3.68 0 0 0-5.3 0 3.68 3.68 0 0 0 0 5.3 3.68 3.68 0 0 0 5.3 0c1.5-1.5 1.5-3.9 0-5.3zm-1.2 4.1c-.8.8-2.1.8-2.9 0s-.8-2.1 0-2.9 2.1-.8 2.9 0 .8 2.1 0 2.9z" opacity=".3" fill="#1e1e1e"/><path d="M33.6 7.1l-9.9.4L3 28.2l14.7 14.7 20.7-20.7.8-9.5-5.6-5.6zm.8 7.7c-.8.8-2.1.8-2.9 0s-.8-2.1 0-2.9 2.1-.8 2.9 0 .8 2.1 0 2.9z" fill="#3999c6"/><path d="M21 10.2l-18 18 14.7 14.7 3.3-3.3z" opacity=".1" fill="#fff"/><use xlink:href="#B" opacity=".3" fill="#1e1e1e"/><path d="M36.6 14.2l-9.9.4L6 35.3 20.7 50l20.7-20.7.8-9.5-5.6-5.6zm.8 7.7c-.8.8-2.1.8-2.9 0s-.8-2.1 0-2.9 2.1-.8 2.9 0 .8 2.1 0 2.9z" fill="#804998"/><path d="M24 17.3l-18 18L20.7 50l3.3-3.3z" opacity=".1" fill="#fff"/><use xlink:href="#B" x="3" y="7.1" opacity=".3" fill="#1e1e1e"/><defs ><path id="B" d="M35.6 10.7a3.68 3.68 0 0 0-5.3 0 3.68 3.68 0 0 0 0 5.3 3.68 3.68 0 0 0 5.3 0 3.68 3.68 0 0 0 0-5.3zm-1.2 4.1c-.8.8-2.1.8-2.9 0s-.8-2.1 0-2.9 2.1-.8 2.9 0 .8 2.1 0 2.9z"/></defs></svg>

<?xml version="1.0" encoding="UTF-8" standalone="no"?>
<svg
   xmlns:dc="http://purl.org/dc/elements/1.1/"
   xmlns:cc="http://creativecommons.org/ns#"
   xmlns:rdf="http://www.w3.org/1999/02/22-rdf-syntax-ns#"
   xmlns:svg="http://www.w3.org/2000/svg"
   xmlns="http://www.w3.org/2000/svg"
   xmlns:sodipodi="http://sodipodi.sourceforge.net/DTD/sodipodi-0.dtd"
   xmlns:inkscape="http://www.inkscape.org/namespaces/inkscape"
   version="1.1"
   id="Layer_1"
   x="0px"
   y="0px"
   height="50"
   width="42.200001"
   viewBox="0 0 42.200001 50"
   enable-background="new 0 0 50 50"
   xml:space="preserve"
   inkscape:version="0.91 r13725"
   sodipodi:docname="Tags.svg"><metadata
     id="metadata25"><rdf:RDF><cc:Work
         rdf:about=""><dc:format>image/svg+xml</dc:format><dc:type
           rdf:resource="http://purl.org/dc/dcmitype/StillImage" /><dc:title></dc:title></cc:Work></rdf:RDF></metadata><defs
     id="defs23" /><sodipodi:namedview
     pagecolor="#ffffff"
     bordercolor="#666666"
     borderopacity="1"
     objecttolerance="10"
     gridtolerance="10"
     guidetolerance="10"
     inkscape:pageopacity="0"
     inkscape:pageshadow="2"
     inkscape:window-width="1920"
     inkscape:window-height="1018"
     id="namedview21"
     showgrid="false"
     fit-margin-top="0"
     fit-margin-left="0"
     fit-margin-right="0"
     fit-margin-bottom="0"
     inkscape:zoom="16.059062"
     inkscape:cx="21.1"
     inkscape:cy="25"
     inkscape:window-x="-8"
     inkscape:window-y="-8"
     inkscape:window-maximized="1"
     inkscape:current-layer="Layer_1" /><path
     d="M 30.6,0 20.7,0.4 0,21.1 14.7,35.8 35.4,15.1 36.2,5.6 30.6,0 Z M 31.4,7.7 C 30.6,8.5 29.3,8.5 28.5,7.7 27.7,6.9 27.7,5.6 28.5,4.8 29.3,4 30.6,4 31.4,4.8 32.2,5.6 32.2,6.9 31.4,7.7 Z"
     id="path3"
     inkscape:connector-curvature="0"
     style="fill:#7fba00" /><polygon
     points="21.9,3.1 3.9,21.1 18.6,35.8 21.9,32.5 "
     id="polygon5"
     style="opacity:0.1;fill:#ffffff"
     transform="translate(-3.9,0)" /><path
     d="M 32.6,3.6 C 31.1,2.1 28.8,2.1 27.3,3.6 25.8,5.1 25.8,7.4 27.3,8.9 28.8,10.4 31.1,10.4 32.6,8.9 34.1,7.4 34.1,5 32.6,3.6 Z M 31.4,7.7 C 30.6,8.5 29.3,8.5 28.5,7.7 27.7,6.9 27.7,5.6 28.5,4.8 29.3,4 30.6,4 31.4,4.8 32.2,5.6 32.2,6.9 31.4,7.7 Z"
     id="path7"
     inkscape:connector-curvature="0"
     style="opacity:0.3;fill:#1e1e1e" /><path
     d="M 33.6,7.1 23.7,7.5 3,28.2 17.7,42.9 38.4,22.2 39.2,12.7 33.6,7.1 Z M 34.4,14.8 C 33.6,15.6 32.3,15.6 31.5,14.8 30.7,14 30.7,12.7 31.5,11.9 32.3,11.1 33.6,11.1 34.4,11.9 35.2,12.7 35.2,14 34.4,14.8 Z"
     id="path9"
     inkscape:connector-curvature="0"
     style="fill:#3999c6" /><polygon
     points="24.9,10.2 6.9,28.2 21.6,42.9 24.9,39.6 "
     id="polygon11"
     style="opacity:0.1;fill:#ffffff"
     transform="translate(-3.9,0)" /><path
     d="M 35.6,10.7 C 34.1,9.2 31.8,9.2 30.3,10.7 28.8,12.2 28.8,14.5 30.3,16 31.8,17.5 34.1,17.5 35.6,16 37.1,14.5 37.1,12.2 35.6,10.7 Z M 34.4,14.8 C 33.6,15.6 32.3,15.6 31.5,14.8 30.7,14 30.7,12.7 31.5,11.9 32.3,11.1 33.6,11.1 34.4,11.9 35.2,12.7 35.2,14 34.4,14.8 Z"
     id="path13"
     inkscape:connector-curvature="0"
     style="opacity:0.3;fill:#1e1e1e" /><path
     d="M 36.6,14.2 26.7,14.6 6,35.3 20.7,50 41.4,29.3 42.2,19.8 36.6,14.2 Z M 37.4,21.9 C 36.6,22.7 35.3,22.7 34.5,21.9 33.7,21.1 33.7,19.8 34.5,19 35.3,18.2 36.6,18.2 37.4,19 38.2,19.8 38.2,21.1 37.4,21.9 Z"
     id="path15"
     inkscape:connector-curvature="0"
     style="fill:#804998" /><polygon
     points="27.9,17.3 9.9,35.3 24.6,50 27.9,46.7 "
     id="polygon17"
     style="opacity:0.1;fill:#ffffff"
     transform="translate(-3.9,0)" /><path
     d="M 38.6,17.8 C 37.1,16.3 34.8,16.3 33.3,17.8 31.8,19.3 31.8,21.6 33.3,23.1 34.8,24.6 37.1,24.6 38.6,23.1 40.1,21.6 40.1,19.3 38.6,17.8 Z M 37.4,21.9 C 36.6,22.7 35.3,22.7 34.5,21.9 33.7,21.1 33.7,19.8 34.5,19 35.3,18.2 36.6,18.2 37.4,19 38.2,19.8 38.2,21.1 37.4,21.9 Z"
     id="path19"
     inkscape:connector-curvature="0"
     style="opacity:0.3;fill:#1e1e1e" /></svg>
